icons/device/laptop.svg

<svg viewBox="0 0 32 32" xmlns="http://www.w3.org/2000/svg"><path fill-rule="evenodd" d="M6 6a2 2 0 00-2 2v16h24V8a2 2 0 00-2-2H6zm0 2h20v14H6V8zM2 28h28v-2H2v2z"/></svg>

<svg width="32" height="32" viewBox="0 0 32 32" fill="none" xmlns="http://www.w3.org/2000/svg">
<path fill-rule="evenodd" clip-rule="evenodd" d="M6 6C4.89543 6 4 6.89543 4 8V23V24H5H27H28V23V8C28 6.89543 27.1046 6 26 6H6ZM6 8H26V22H6V8ZM2 28H30V26H2V28Z" fill="black"/>
</svg>
